packages/icons/svg/Outline/tv.svg

<svg width="24" height="24" viewBox="0 0 24 24" fill="none" xmlns="http://www.w3.org/2000/svg">
<g id="Icon/Outline/tv">
<path id="Mask" fill-rule="evenodd" clip-rule="evenodd" d="M19 19C19 19.552 18.552 20 18 20H6C5.448 20 5 19.552 5 19V9.00001C5 8.44801 5.448 8.00001 6 8.00001H18C18.552 8.00001 19 8.44801 19 9.00001V19ZM18 6.00001H14.414L16.707 3.70701C17.098 3.31601 17.098 2.68401 16.707 2.29301C16.316 1.90201 15.684 1.90201 15.293 2.29301L12 5.58601L8.707 2.29301C8.316 1.90201 7.684 1.90201 7.293 2.29301C6.902 2.68401 6.902 3.31601 7.293 3.70701L9.586 6.00001H6C4.346 6.00001 3 7.34601 3 9.00001V19C3 20.654 4.346 22 6 22H18C19.654 22 21 20.654 21 19V9.00001C21 7.34601 19.654 6.00001 18 6.00001Z" fill="#000000"/>
</g>
</svg>

<svg fill="none" height="24" viewBox="0 0 24 24" width="24" xmlns="http://www.w3.org/2000/svg"><path clip-rule="evenodd" d="m19 18.9998c0 .552-.448 1-1 1h-11.99998c-.552 0-1-.448-1-1v-10.00004c0-.552.448-1 1-1h11.99998c.552 0 1 .448 1 1zm-1-13.00004h-3.586l2.293-2.293c.391-.391.391-1.023 0-1.414s-1.023-.391-1.414 0l-3.293 3.293-3.293-3.293c-.391-.391-1.023-.391-1.414 0s-.391 1.023 0 1.414l2.293 2.293h-3.586c-1.654 0-3 1.346-3 3v10.00004c0 1.654 1.346 3 3 3h12c1.654 0 3-1.346 3-3v-10.00004c0-1.654-1.346-3-3-3z" fill="#6b7280" fill-rule="evenodd"/></svg>
